2/src/images/linkedin.svg

<svg width="25" height="26" viewBox="0 0 25 26" fill="none" xmlns="http://www.w3.org/2000/svg">
<path fill-rule="evenodd" clip-rule="evenodd" d="M21.3035 21.752H17.5958V15.9499C17.5958 14.5666 17.5722 12.7867 15.6694 12.7867C13.7396 12.7867 13.4451 14.2944 13.4451 15.8513V21.752H9.74167V9.82144H13.2958V11.4527H13.3472C13.8417 10.5145 15.0514 9.52561 16.8549 9.52561C20.6097 9.52561 21.3035 11.9957 21.3035 15.2089V21.752ZM5.56111 8.19158C4.37014 8.19158 3.40972 7.22839 3.40972 6.04089C3.40972 4.85408 4.37014 3.89089 5.56111 3.89089C6.74722 3.89089 7.70972 4.85408 7.70972 6.04089C7.70972 7.22839 6.74722 8.19158 5.56111 8.19158ZM3.70417 21.752H7.41597V9.82144H3.70417V21.752ZM23.15 0.449219H1.84375C0.826389 0.449219 0 1.25616 0 2.252V23.6451C0 24.6409 0.826389 25.4492 1.84375 25.4492H23.15C24.1694 25.4492 24.9993 24.6409 24.9993 23.6451V2.252C24.9993 1.25616 24.1694 0.449219 23.15 0.449219Z" fill="#7F7F7F"/>
</svg>

<svg width="25" height="26" fill="none" xmlns="http://www.w3.org/2000/svg"><path fill-rule="evenodd" clip-rule="evenodd" d="M21.303 21.752h-3.707V15.95c0-1.383-.024-3.163-1.927-3.163-1.93 0-2.224 1.507-2.224 3.064v5.901H9.742V9.822h3.554v1.63h.051c.495-.938 1.704-1.926 3.508-1.926 3.755 0 4.448 2.47 4.448 5.683v6.543zM5.561 8.192a2.15 2.15 0 110-4.301 2.15 2.15 0 010 4.3zm-1.857 13.56h3.712V9.822H3.704v11.93zM23.15.449H1.844C.826.45 0 1.256 0 2.252v21.393c0 .996.826 1.804 1.844 1.804H23.15c1.02 0 1.85-.808 1.85-1.804V2.252c0-.996-.83-1.803-1.85-1.803z" fill="#7F7F7F"/></svg>
